svg/furkot/ocha/volcano.svg

<svg viewBox="0 0 512 512" xmlns="http://www.w3.org/2000/svg"><path d="m298.957 162.918c32.256 11.06 75.008 24.064 84.121-28.057 7.22-40.448 61.236-25.447 84.224-28.058 41.677-4.761 10.24-83.015-42.086-84.167-52.992-1.152-77.107 22.092-98.253 70.138-10.035 23.092-18.637 40.5-56.064 28.058s-64.819 18.278-42.086 56.115c20.173 33.587-.307 70.144-.307 70.144h56.422s-.461-20.838-14.029-42.086c-15.872-24.781-4.966-53.453 28.058-42.087zm-298.957 349.082c145.152-105.83 181.402-252.058 181.402-252.058h149.196s36.25 146.228 181.402 252.058z"/></svg>

<svg xmlns="http://www.w3.org/2000/svg" viewBox="0 0 512 512"><path d="M298.957 162.918C331.213 173.978 373.965 186.982 383.078 134.861 390.298 94.413 444.314 109.414 467.302 106.803 508.979 102.042 477.542 23.788 425.216 22.636 372.224 21.484 348.109 44.728 326.963 92.774 316.928 115.866 308.326 133.274 270.899 120.832 233.472 108.39 206.08 139.11 228.813 176.947 248.986 210.534 228.506 247.091 228.506 247.091H284.928C284.928 247.091 284.467 226.253 270.899 205.005 255.027 180.224 265.933 151.552 298.957 162.918ZM0 512C145.152 406.17 181.402 259.942 181.402 259.942H330.598C330.598 259.942 366.848 406.17 512 512H0Z"/></svg>
